X: 31739
T: Pat McHugh's
R: reel
M: 4/4
K: Gminor
|:B3 d c2 AG|F3 G FD (3DDD|d2 cA GBAF|DG (3GGG G2 ga|
bage (3fga gf|dAAG FDD=E|F3 G Addc|AGGF G3:|
|:dccA G2 (3ABc|dfag fdcA|c2 AF cFAc|d3 =e (3fga gf|
dccA G2 (3=efg|agg=e f2 af|c2AF cFdc|AGGF G4:|
|:g3 a gfdc|dg g2 g3 f|(3gab ag fdcA|D=EFA dAcA|
G2 DG (3Bcd cA|G2 AF dfba|gfdc (3Acd cA|DGGF G4:|

